src/resources/mandatory/M034.svg

<svg height="264.567" width="264.568" xmlns="http://www.w3.org/2000/svg" xmlns:xlink="http://www.w3.org/1999/xlink"><clipPath id="a"><path d="m78.886 471.68h228.24v228.241h-228.24z"/></clipPath><g clip-path="url(#a)" fill-rule="evenodd" transform="matrix(1.33333 0 0 -1.33333 -125.057 913.35)"><path d="m0 0c54.79 0 99.213 44.438 99.213 99.177 0 54.81-44.423 99.248-99.213 99.248s-99.213-44.438-99.213-99.248c0-54.739 44.423-99.177 99.213-99.177" fill="#005387" transform="translate(193.006 486.588)"/><g fill="#ecece7"><path d="m198.695 559.565h10.986v-30.186h-10.986z"/><path d="m174.015 565.055h30.173v-10.98h-30.173z"/><path d="m0 0 23.412-4.677 1.878 9.416-23.412 4.676z" transform="translate(191.934 574.75)"/><path d="m0 0v20.614l6.447-7.257 7.184 6.382-11.284 12.684-20.016-18.097v-14.326l.031-.734.094-.72.141-.72.219-.704.266-.672.313-.657.375-.625.423-.595.469-.563.517-.516.563-.469.595-.422.626-.375.657-.314.674-.265.704-.219.719-.141.721-.093.735-.032.72.032.735.093.705.141.704.219.673.265.657.314.626.375.595.422.563.469.517.516.469.563.423.595.375.625.329.657.266.672.203.704.141.72.094.72z" transform="translate(182.842 562.91)"/><path d="m0 0-13.803-12.481v5.192l.031.735.094.72.156.735.204.704.266.688.329.657.391.625.422.595.486.563.516.517.579.469.595.422.641.375.658.313.688.266.72.203.72.141.736.078.735.016.736-.032.72-.109.719-.156.705-.219.688-.282.642-.344z" transform="translate(178.976 601.917)"/><path d="m0 0 21.425-13.091-.485-.344-.454-.406-.407-.439-.36-.484-.313-.517-.266-.547-.203-.563-.157-.578-.094-.595-21.409 13.09z" transform="translate(132.229 594.27)"/><path d="m0 0 28.546 25.79.36.282.391.25.406.188.439.141.454.093.469.032.454-.032.454-.078.438-.125.422-.188.392-.235.376-.281.328-.312 38.922-43.073 13.381 12.09-3.506 3.893-9.5-8.586-35.415 39.179-.501.516-.532.469-.564.422-.61.376-.626.328-.657.282-.673.218-.689.188-.704.11-.704.062-.704.016-.721-.047-.704-.109-.688-.157-.673-.219-.658-.266-.641-.312-.611-.36-.579-.407-.547-.453-28.547-25.806.548-.25.517-.314.47-.359.453-.406.407-.455.36-.484.298-.517.265-.531z" transform="translate(162.997 577.847)"/><path d="m0 0 3.24 2.925v75.166l-2.27-1.017-2.222-1.11-2.191-1.157v-73.65l2.097-1.282.673.109z" transform="translate(157.175 582.21)"/><path d="m0 0h24.664v6.663h-24.664l-.783.031-.766.094-.783.14-.752.205-.735.265-.72.313-.688.359-.673.423-.626.469-.595.501-.563.562-.501.595-.469.625-.423.673-.36.688-.313.72-.266.734-.204.767-.14.766-.094.783-.016.781v10.995l-.516-.281-.533-.25-.563-.189-.564-.14-.578-.078-.595-.032-.579.032-.579.078-.579.14-.548.189-.532.25-.516.281v-10.995l.031-1.001.094-1.001.141-.985.203-.97.25-.97.313-.937.376-.939.423-.907.469-.876.532-.845.564-.813.626-.782.657-.75.704-.705.751-.672.783-.61.814-.579.845-.515.892-.47.892-.422.939-.376.939-.313.97-.265.97-.188.986-.157 1.002-.078z" transform="translate(170.885 542.642)"/><path d="m0 0-.078 1.596-.126 1.595-.187 1.58-.266 1.579-.298 1.564-.375 1.549-.438 1.533-.486 1.516-.532 1.502-.61 1.47-.657 1.455-.704 1.438-.767 1.393-.815 1.376-.876 1.329-.907 1.314-.97 1.267-1.018 1.219-1.064 1.205-6.276-5.067 2.599 24.085 24.085-2.58-6.276-5.068 1.237-1.454 1.205-1.486 1.158-1.533 1.095-1.564 1.064-1.595 1.002-1.627.939-1.657.908-1.705.829-1.705.798-1.752.719-1.767.674-1.798.626-1.815.564-1.829.501-1.846.437-1.862.376-1.876.328-1.877.251-1.908.203-1.893.141-1.908.078-1.924z" transform="translate(238.414 583.774)"/><path d="m0 0-.032.438-.093.422-.141.423-.188.391-.235.359-.297.329-.329.281-.36.25-.391.188-.407.14-.438.094-.438.016-.423-.016-.438-.094-.407-.14-.391-.188-.36-.25-.329-.281-.297-.329-.235-.359-.188-.391-.141-.423-.093-.422-.032-.438.032-.438.093-.423.141-.406.188-.391.235-.376.297-.328.329-.281.36-.251.391-.187.407-.141.438-.078.423-.031.438.031.438.078.407.141.391.187.36.251.329.281.297.328.235.376.188.391.141.406.093.423z" transform="translate(160.415 576.018)"/><path d="m0 0-.031.533-.095.531-.156.515-.203.501-.25.47-.314.438-.36.406-.406.36-.439.313-.47.265-.501.203-.516.142-.531.094-.533.031-.532-.031-.532-.094-.517-.142-.501-.203-.468-.265-.439-.313-.407-.36-.359-.406-.314-.438-.266-.47-.204-.501-.14-.515-.094-.531-.031-.533.031-.532.094-.531.14-.517.204-.5.266-.469.314-.438.359-.406.407-.36.439-.313.468-.25.501-.219.517-.141.532-.094.532-.031.533.031.531.094.516.141.501.219.47.25.439.313.406.36.36.406.314.438.25.469.203.5.156.517.095.531z" transform="translate(221.09 574.782)"/><path d="m0 0-.03.531-.095.533-.141.515-.203.501-.266.469-.313.437-.36.408-.391.36-.454.312-.47.266-.485.203-.532.141-.516.094-.548.031-.532-.031-.533-.094-.516-.141-.5-.203-.47-.266-.438-.312-.407-.36-.36-.408-.313-.437-.251-.469-.203-.501-.156-.515-.094-.533-.032-.531.032-.532.094-.531.156-.517.203-.501.251-.469.313-.437.36-.407.407-.36.438-.312.47-.267.5-.203.516-.141.533-.093.532-.032.548.032.516.093.532.141.485.203.47.267.454.312.391.36.36.407.313.437.266.469.203.501.141.517.095.531z" transform="translate(197.677 579.459)"/><path d="m0 0-.031.751-.078.75-.157.735-.204.736-.265.703-.313.688-.36.657-.423.626-.469.594-.517.548-.548.516-.594.469-.626.407-.658.375-.688.313-.704.265-.72.204-.736.141-.751.094-.751.031-.767-.031-.736-.094-.751-.141-.72-.204-.704-.265-.688-.313-.658-.375-.626-.407-.594-.469-.548-.516-.517-.548-.469-.594-.423-.626-.36-.657-.313-.688-.266-.703-.203-.736-.141-.735-.094-.75-.031-.751.031-.751.094-.75.141-.735.203-.736.266-.703.313-.689.36-.657.423-.625.469-.594.517-.548.548-.516.594-.469.626-.422.658-.36.688-.313.704-.266.72-.203.751-.141.736-.094.767-.031.751.031.751.094.736.141.72.203.704.266.688.313.658.36.626.422.594.469.548.516.517.548.469.594.423.625.36.657.313.689.265.703.204.736.157.735.078.75z" transform="translate(183.608 615.806)"/><path d="m0 0-.031.579-.078.562-.157.548-.203.547-.266.501-.313.484-.36.454-.407.407-.438.359-.485.313-.517.25-.532.219-.563.141-.564.095-.563.031-.579-.031-.564-.095-.563-.141-.532-.219-.517-.25-.485-.313-.438-.359-.407-.407-.36-.454-.313-.484-.266-.501-.203-.547-.141-.548-.094-.562-.031-.579.031-.58.094-.562.141-.564.203-.531.266-.516.313-.469.36-.453.407-.407.438-.36.485-.313.517-.266.532-.203.563-.141.564-.093.579-.032.563.032.564.093.563.141.532.203.517.266.485.313.438.36.407.407.36.453.313.469.266.516.203.531.157.564.078.562z" transform="translate(179.492 559.565)"/><path d="m0 0-.031.579-.094.562-.156.548-.204.547-.25.501-.313.484-.36.454-.408.407-.454.359-.484.313-.501.25-.548.219-.548.141-.563.095-.579.031-.579-.031-.564-.095-.548-.141-.548-.219-.5-.25-.485-.313-.454-.359-.406-.407-.361-.454-.313-.484-.25-.501-.203-.547-.156-.548-.095-.562-.031-.579.031-.58.095-.562.156-.564.203-.531.25-.516.313-.469.361-.453.406-.407.454-.36.485-.313.5-.266.548-.203.548-.141.564-.093.579-.032.579.032.563.093.548.141.548.203.501.266.484.313.454.36.408.407.36.453.313.469.25.516.204.531.156.564.094.562z" transform="translate(209.68 559.565)"/><path d="m0 0-.031.579-.094.563-.156.563-.204.532-.25.516-.313.485-.36.438-.408.406-.454.36-.484.313-.501.266-.548.204-.548.14-.563.094-.579.031-.579-.031-.564-.094-.548-.14-.548-.204-.5-.266-.485-.313-.454-.36-.406-.406-.361-.438-.313-.485-.25-.516-.203-.532-.156-.563-.095-.563-.031-.579.031-.562.095-.58.156-.546.203-.533.25-.515.313-.486.361-.437.406-.407.454-.375.485-.313.5-.251.548-.203.548-.156.564-.094.579-.031.579.031.563.094.548.156.548.203.501.251.484.313.454.375.408.407.36.437.313.486.25.515.204.533.156.546.094.58z" transform="translate(209.68 529.379)"/></g></g></svg>

<?xml version="1.0" encoding="UTF-8" standalone="no"?>
<svg
   height="264.56601"
   width="264.56735"
   version="1.1"
   id="svg20"
   xmlns="http://www.w3.org/2000/svg"
   xmlns:svg="http://www.w3.org/2000/svg">
  <defs
     id="defs20" />
  <clipPath
     id="a">
    <path
       d="m 78.886,471.68 h 228.24 V 699.921 H 78.886 Z"
       id="path1" />
  </clipPath>
  <g
     clip-path="url(#a)"
     fill-rule="evenodd"
     transform="matrix(1.33333,0,0,-1.33333,-125.05702,913.34838)"
     id="g20">
    <path
       d="m 0,0 c 54.79,0 99.213,44.438 99.213,99.177 0,54.81 -44.423,99.248 -99.213,99.248 -54.79,0 -99.213,-44.438 -99.213,-99.248 C -99.213,44.438 -54.79,0 0,0"
       fill="#005387"
       transform="translate(193.006,486.588)"
       id="path2" />
    <g
       fill="#ecece7"
       id="g19">
      <path
         d="m 198.695,559.565 h 10.986 v -30.186 h -10.986 z"
         id="path3" />
      <path
         d="m 174.015,565.055 h 30.173 v -10.98 h -30.173 z"
         id="path4" />
      <path
         d="M 0,0 23.412,-4.677 25.29,4.739 1.878,9.415 Z"
         transform="translate(191.934,574.75)"
         id="path5" />
      <path
         d="M 0,0 V 20.614 L 6.447,13.357 13.631,19.739 2.347,32.423 -17.669,14.326 V 0 l 0.031,-0.734 0.094,-0.72 0.141,-0.72 0.219,-0.704 0.266,-0.672 0.313,-0.657 0.375,-0.625 0.423,-0.595 0.469,-0.563 0.517,-0.516 0.563,-0.469 0.595,-0.422 0.626,-0.375 0.657,-0.314 0.674,-0.265 0.704,-0.219 0.719,-0.141 0.721,-0.093 0.735,-0.032 0.72,0.032 0.735,0.093 0.705,0.141 0.704,0.219 0.673,0.265 0.657,0.314 0.626,0.375 0.595,0.422 0.563,0.469 0.517,0.516 0.469,0.563 0.423,0.595 0.375,0.625 0.329,0.657 0.266,0.672 0.203,0.704 0.141,0.72 0.094,0.72 z"
         transform="translate(182.842,562.91)"
         id="path6" />
      <path
         d="m 0,0 -13.803,-12.481 v 5.192 l 0.031,0.735 0.094,0.72 0.156,0.735 0.204,0.704 0.266,0.688 0.329,0.657 0.391,0.625 0.422,0.595 0.486,0.563 0.516,0.517 0.579,0.469 0.595,0.422 0.641,0.375 0.658,0.313 0.688,0.266 0.72,0.203 0.72,0.141 0.736,0.078 0.735,0.016 0.736,-0.032 0.72,-0.109 0.719,-0.156 0.705,-0.219 0.688,-0.282 0.642,-0.344 z"
         transform="translate(178.976,601.917)"
         id="path7" />
      <path
         d="m 0,0 21.425,-13.091 -0.485,-0.344 -0.454,-0.406 -0.407,-0.439 -0.36,-0.484 -0.313,-0.517 -0.266,-0.547 -0.203,-0.563 -0.157,-0.578 -0.094,-0.595 -21.409,13.09 z"
         transform="translate(132.229,594.27)"
         id="path8" />
      <path
         d="m 0,0 28.546,25.79 0.36,0.282 0.391,0.25 0.406,0.188 0.439,0.141 0.454,0.093 0.469,0.032 0.454,-0.032 0.454,-0.078 0.438,-0.125 0.422,-0.188 0.392,-0.235 0.376,-0.281 0.328,-0.312 38.922,-43.073 13.381,12.09 -3.506,3.893 -9.5,-8.586 -35.415,39.179 -0.501,0.516 -0.532,0.469 -0.564,0.422 -0.61,0.376 -0.626,0.328 -0.657,0.282 -0.673,0.218 -0.689,0.188 -0.704,0.11 -0.704,0.062 -0.704,0.016 -0.721,-0.047 -0.704,-0.109 -0.688,-0.157 -0.673,-0.219 -0.658,-0.266 -0.641,-0.312 -0.611,-0.36 -0.579,-0.407 -0.547,-0.453 -28.547,-25.806 0.548,-0.25 0.517,-0.314 0.47,-0.359 0.453,-0.406 0.407,-0.455 0.36,-0.484 0.298,-0.517 0.265,-0.531 z"
         transform="translate(162.997,577.847)"
         id="path9" />
      <path
         d="M 0,0 3.24,2.925 V 78.091 L 0.97,77.074 -1.252,75.964 -3.443,74.807 V 1.157 l 2.097,-1.282 0.673,0.109 z"
         transform="translate(157.175,582.21)"
         id="path10" />
      <path
         d="M 0,0 H 24.664 V 6.663 H 0 l -0.783,0.031 -0.766,0.094 -0.783,0.14 -0.752,0.205 -0.735,0.265 -0.72,0.313 -0.688,0.359 -0.673,0.423 -0.626,0.469 -0.595,0.501 -0.563,0.562 -0.501,0.595 -0.469,0.625 -0.423,0.673 -0.36,0.688 -0.313,0.72 -0.266,0.734 -0.204,0.767 -0.14,0.766 -0.094,0.783 -0.016,0.781 v 10.995 l -0.516,-0.281 -0.533,-0.25 -0.563,-0.189 -0.564,-0.14 -0.578,-0.078 -0.595,-0.032 -0.579,0.032 -0.579,0.078 -0.579,0.14 -0.548,0.189 -0.532,0.25 -0.516,0.281 V 17.157 l 0.031,-1.001 0.094,-1.001 0.141,-0.985 0.203,-0.97 0.25,-0.97 0.313,-0.937 0.376,-0.939 0.423,-0.907 0.469,-0.876 0.532,-0.845 0.564,-0.813 0.626,-0.782 0.657,-0.75 0.704,-0.705 0.751,-0.672 0.783,-0.61 0.814,-0.579 0.845,-0.515 0.892,-0.47 0.892,-0.422 0.939,-0.376 0.939,-0.313 0.97,-0.265 0.97,-0.188 0.986,-0.157 1.002,-0.078 z"
         transform="translate(170.885,542.642)"
         id="path11" />
      <path
         d="m 0,0 -0.078,1.596 -0.126,1.595 -0.187,1.58 -0.266,1.579 -0.298,1.564 -0.375,1.549 -0.438,1.533 -0.486,1.516 -0.532,1.502 -0.61,1.47 -0.657,1.455 -0.704,1.438 -0.767,1.393 -0.815,1.376 -0.876,1.329 -0.907,1.314 -0.97,1.267 -1.018,1.219 -1.064,1.205 -6.276,-5.067 2.599,24.085 L 9.234,43.918 2.958,38.85 4.195,37.396 5.4,35.91 l 1.158,-1.533 1.095,-1.564 1.064,-1.595 1.002,-1.627 0.939,-1.657 0.908,-1.705 0.829,-1.705 0.798,-1.752 0.719,-1.767 0.674,-1.798 0.626,-1.815 0.564,-1.829 0.501,-1.846 0.437,-1.862 0.376,-1.876 0.328,-1.877 0.251,-1.908 0.203,-1.893 0.141,-1.908 0.078,-1.924 z"
         transform="translate(238.414,583.774)"
         id="path12" />
      <path
         d="M 0,0 -0.032,0.438 -0.125,0.86 -0.266,1.283 -0.454,1.674 -0.689,2.033 -0.986,2.362 -1.315,2.643 -1.675,2.893 -2.066,3.081 -2.473,3.221 -2.911,3.315 -3.349,3.331 -3.772,3.315 -4.21,3.221 -4.617,3.081 -5.008,2.893 -5.368,2.643 -5.697,2.362 -5.994,2.033 -6.229,1.674 -6.417,1.283 -6.558,0.86 -6.651,0.438 -6.683,0 l 0.032,-0.438 0.093,-0.423 0.141,-0.406 0.188,-0.391 0.235,-0.376 0.297,-0.328 0.329,-0.281 0.36,-0.251 0.391,-0.187 0.407,-0.141 0.438,-0.078 0.423,-0.031 0.438,0.031 0.438,0.078 0.407,0.141 0.391,0.187 0.36,0.251 0.329,0.281 0.297,0.328 0.235,0.376 0.188,0.391 0.141,0.406 0.093,0.423 z"
         transform="translate(160.415,576.018)"
         id="path13" />
      <path
         d="m 0,0 -0.031,0.533 -0.095,0.531 -0.156,0.515 -0.203,0.501 -0.25,0.47 -0.314,0.438 -0.36,0.406 -0.406,0.36 -0.439,0.313 -0.47,0.265 L -3.225,4.535 -3.741,4.677 -4.272,4.771 -4.805,4.802 -5.337,4.771 -5.869,4.677 -6.386,4.535 -6.887,4.332 -7.355,4.067 -7.794,3.754 -8.201,3.394 -8.56,2.988 -8.874,2.55 -9.14,2.08 -9.344,1.579 -9.484,1.064 -9.578,0.533 -9.609,0 l 0.031,-0.532 0.094,-0.531 0.14,-0.517 0.204,-0.5 0.266,-0.469 0.314,-0.438 0.359,-0.406 0.407,-0.36 0.439,-0.313 0.468,-0.25 0.501,-0.219 0.517,-0.141 0.532,-0.094 0.532,-0.031 0.533,0.031 0.531,0.094 0.516,0.141 0.501,0.219 0.47,0.25 0.439,0.313 0.406,0.36 0.36,0.406 0.314,0.438 0.25,0.469 0.203,0.5 0.156,0.517 0.095,0.531 z"
         transform="translate(221.09,574.782)"
         id="path14" />
      <path
         d="M 0,0 -0.03,0.531 -0.125,1.064 -0.266,1.579 -0.469,2.08 -0.735,2.549 -1.048,2.986 -1.408,3.394 -1.799,3.754 -2.253,4.066 -2.723,4.332 -3.208,4.535 -3.74,4.676 -4.256,4.77 -4.804,4.801 -5.336,4.77 -5.869,4.676 -6.385,4.535 -6.885,4.332 -7.355,4.066 -7.793,3.754 -8.2,3.394 -8.56,2.986 -8.873,2.549 -9.124,2.08 -9.327,1.579 -9.483,1.064 -9.577,0.531 -9.609,0 l 0.032,-0.532 0.094,-0.531 0.156,-0.517 0.203,-0.501 0.251,-0.469 0.313,-0.437 0.36,-0.407 0.407,-0.36 0.438,-0.312 0.47,-0.267 0.5,-0.203 0.516,-0.141 0.533,-0.093 0.532,-0.032 0.548,0.032 0.516,0.093 0.532,0.141 0.485,0.203 0.47,0.267 0.454,0.312 0.391,0.36 0.36,0.407 0.313,0.437 0.266,0.469 0.203,0.501 0.141,0.517 0.095,0.531 z"
         transform="translate(197.677,579.459)"
         id="path15" />
      <path
         d="M 0,0 -0.031,0.751 -0.109,1.501 -0.266,2.236 -0.47,2.972 -0.735,3.675 -1.048,4.363 -1.408,5.02 -1.831,5.646 -2.3,6.24 -2.817,6.788 -3.365,7.304 -3.959,7.773 -4.585,8.18 -5.243,8.555 -5.931,8.868 -6.635,9.133 -7.355,9.337 -8.091,9.478 -8.842,9.572 -9.593,9.603 -10.36,9.572 -11.096,9.478 -11.847,9.337 -12.567,9.133 -13.271,8.868 -13.959,8.555 -14.617,8.18 -15.243,7.773 -15.837,7.304 -16.385,6.788 -16.902,6.24 -17.371,5.646 -17.794,5.02 -18.154,4.363 -18.467,3.675 -18.733,2.972 -18.936,2.236 -19.077,1.501 -19.171,0.751 -19.202,0 l 0.031,-0.751 0.094,-0.75 0.141,-0.735 0.203,-0.736 0.266,-0.703 0.313,-0.689 0.36,-0.657 0.423,-0.625 0.469,-0.594 0.517,-0.548 0.548,-0.516 0.594,-0.469 0.626,-0.422 0.658,-0.36 0.688,-0.313 0.704,-0.266 0.72,-0.203 0.751,-0.141 0.736,-0.094 0.767,-0.031 0.751,0.031 0.751,0.094 0.736,0.141 0.72,0.203 0.704,0.266 0.688,0.313 0.658,0.36 0.626,0.422 0.594,0.469 0.548,0.516 0.517,0.548 0.469,0.594 0.423,0.625 0.36,0.657 0.313,0.689 0.265,0.703 0.204,0.736 0.157,0.735 0.078,0.75 z"
         transform="translate(183.608,615.806)"
         id="path16" />
      <path
         d="M 0,0 -0.031,0.579 -0.109,1.141 -0.266,1.689 -0.469,2.236 -0.735,2.737 -1.048,3.221 -1.408,3.675 -1.815,4.082 -2.253,4.441 -2.738,4.754 -3.255,5.004 -3.787,5.223 -4.35,5.364 -4.914,5.459 -5.477,5.49 -6.056,5.459 -6.62,5.364 -7.183,5.223 -7.715,5.004 -8.232,4.754 -8.717,4.441 -9.155,4.082 -9.562,3.675 -9.922,3.221 -10.235,2.737 -10.501,2.236 -10.704,1.689 -10.845,1.141 -10.939,0.579 -10.97,0 l 0.031,-0.58 0.094,-0.562 0.141,-0.564 0.203,-0.531 0.266,-0.516 0.313,-0.469 0.36,-0.453 0.407,-0.407 0.438,-0.36 0.485,-0.313 0.517,-0.266 0.532,-0.203 0.563,-0.141 0.564,-0.093 0.579,-0.032 0.563,0.032 0.564,0.093 0.563,0.141 0.532,0.203 0.517,0.266 0.485,0.313 0.438,0.36 0.407,0.407 0.36,0.453 0.313,0.469 0.266,0.516 0.203,0.531 0.157,0.564 0.078,0.562 z"
         transform="translate(179.492,559.565)"
         id="path17" />
      <path
         d="M 0,0 -0.031,0.579 -0.125,1.141 -0.281,1.689 -0.485,2.236 -0.735,2.737 -1.048,3.221 -1.408,3.675 -1.816,4.082 -2.27,4.441 -2.754,4.754 -3.255,5.004 -3.803,5.223 -4.351,5.364 -4.914,5.459 -5.493,5.49 -6.072,5.459 -6.636,5.364 -7.184,5.223 -7.732,5.004 -8.232,4.754 -8.717,4.441 -9.171,4.082 -9.577,3.675 -9.938,3.221 -10.251,2.737 -10.501,2.236 -10.704,1.689 -10.86,1.141 -10.955,0.579 -10.986,0 l 0.031,-0.58 0.095,-0.562 0.156,-0.564 0.203,-0.531 0.25,-0.516 0.313,-0.469 0.361,-0.453 0.406,-0.407 0.454,-0.36 0.485,-0.313 0.5,-0.266 0.548,-0.203 0.548,-0.141 0.564,-0.093 0.579,-0.032 0.579,0.032 0.563,0.093 0.548,0.141 0.548,0.203 0.501,0.266 0.484,0.313 0.454,0.36 0.408,0.407 0.36,0.453 0.313,0.469 0.25,0.516 0.204,0.531 0.156,0.564 0.094,0.562 z"
         transform="translate(209.68,559.565)"
         id="path18" />
      <path
         d="m 0,0 -0.031,0.579 -0.094,0.563 -0.156,0.563 -0.204,0.532 -0.25,0.516 -0.313,0.485 -0.36,0.438 -0.408,0.406 -0.454,0.36 -0.484,0.313 -0.501,0.266 -0.548,0.204 -0.548,0.14 L -4.914,5.459 -5.493,5.49 -6.072,5.459 -6.636,5.365 -7.184,5.225 -7.732,5.021 -8.232,4.755 -8.717,4.442 -9.171,4.082 -9.577,3.676 -9.938,3.238 -10.251,2.753 -10.501,2.237 -10.704,1.705 -10.86,1.142 -10.955,0.579 -10.986,0 l 0.031,-0.562 0.095,-0.58 0.156,-0.546 0.203,-0.533 0.25,-0.515 0.313,-0.486 0.361,-0.437 0.406,-0.407 0.454,-0.375 0.485,-0.313 0.5,-0.251 0.548,-0.203 0.548,-0.156 0.564,-0.094 0.579,-0.031 0.579,0.031 0.563,0.094 0.548,0.156 0.548,0.203 0.501,0.251 0.484,0.313 0.454,0.375 0.408,0.407 0.36,0.437 0.313,0.486 0.25,0.515 0.204,0.533 0.156,0.546 0.094,0.58 z"
         transform="translate(209.68,529.379)"
         id="path19" />
    </g>
  </g>
</svg>
